icons/14x14_edit_outline.svg

<svg xmlns="http://www.w3.org/2000/svg" width="14" height="14" viewBox="0 0 14 14">
  <path d="M9.71475916,5.00765238 L10.6713804,4.05103113 C10.9372628,3.78514879 10.9372628,3.35406834 10.6713804,3.08818601 C10.4054981,2.82230367 9.97441764,2.82230367 9.7085353,3.08818601 L8.75191404,4.04480726 L9.71475916,5.00765238 Z M9.00765238,5.71475916 L8.04480726,4.75191404 L3.40628014,9.39044116 L2.92485758,10.8347088 L4.36912526,10.3532863 L9.00765238,5.71475916 Z M5.44948829,12.1013504 L2.45064512,13.1009648 C2.1598365,13.197901 1.84543201,13.197901 1.55462339,13.1009648 C0.812334679,12.8535352 0.411172085,12.05121 0.658601654,11.3089213 L1.65821604,8.31007814 L8.29432174,1.67397244 C9.34125266,0.627041522 11.0386631,0.627041522 12.085594,1.67397244 C13.1325249,2.72090337 13.1325249,4.41831377 12.085594,5.46524469 L5.44948829,12.1013504 Z"/>
</svg>

<svg width="14" height="14" fill="none" xmlns="http://www.w3.org/2000/svg"><path d="m9.715 5.008.956-.957a.68.68 0 1 0-.962-.963l-.957.957.963.963Zm-.707.707-.963-.963L3.406 9.39l-.481 1.445 1.444-.482 4.639-4.638ZM5.45 12.1l-3 1a1.417 1.417 0 0 1-1.79-1.791l1-2.999 6.635-6.636a2.68 2.68 0 0 1 3.792 3.791L5.45 12.101Z" fill="#000"/></svg>
